X: 115
T: No_50_Out_of_the_Mountains.krn
N: Derived from No_50_Out_of_the_Mountains.krn
%%abc-version 2.0
%%abcx-abcm2ps-target-version 5.9.1 (29 Sep 2008)
%%abc-creator hum2abc beta
%%abcx-conversion-date 2019/03/15 08:37:56
%%humdrum-veritas 1353426163
%%humdrum-veritas-data 203396375
%%linebreak <none>
%%barnumbers 0
L: 1/8
M: 2/4
K: D clef=bass
[K:clef=bass][M:2/4]B,7/A,/ | 
B,2A,3/E,/ | 
E,2E,2 ]|:  
B,2A,3/F,/ | 
E,2E,3/D,/ | 
E,2E,3/D,/ | 
E,2D,2 | 
B,,2F,,3/E,/ | 
E,2E,3/D,/ | 
E,2D,2 | 
B,,2F,,2 | 
E,2D,D, | 
B,,2D,3/D,/ | 
B,,3/D,/D,2 | 
D,4 :|]  



